images/core/787878/key.svg

<svg height="16" width="16" xmlns="http://www.w3.org/2000/svg"><path d="m13.727 7.714c-1.309-1.308-3.248-1.569-4.827-.818l-5.899-5.896h-3.001v2h1v1.618l.378.382h1.622v1h1v1.622h1.622l.864.862-.986 1.016.992.99c-.062 1.162.335 2.346 1.223 3.234 1.66 1.653 4.352 1.653 6.012 0 1.658-1.66 1.658-4.351 0-6.01zm-.829 5.182c-.646.646-1.693.646-2.338 0-.646-.646-.646-1.692 0-2.338.645-.646 1.688-.646 2.338 0 .645.646.645 1.694 0 2.338z" fill="#787878"/></svg>

<svg xmlns="http://www.w3.org/2000/svg" width="16px" height="16px"><path fill="#787878" d="M13.727,7.714C12.418,6.406,10.479,6.145,8.9,6.896L3.001,1H0v2h1l0,0v1.618L1.378,5H3v1h1v1.622h1.622l0.864,0.862L5.5,9.5l0.992,0.99c-0.062,1.162,0.335,2.346,1.223,3.234c1.66,1.653,4.352,1.653,6.012,0C15.385,12.064,15.385,9.373,13.727,7.714z M12.898,12.896c-0.646,0.646-1.693,0.646-2.338,0c-0.646-0.646-0.646-1.692,0-2.338c0.645-0.646,1.688-0.646,2.338,0C13.543,11.204,13.543,12.252,12.898,12.896z"/></svg>
